svgs/sharp-regular/cup-togo.svg

<svg xmlns="http://www.w3.org/2000/svg" viewBox="0 0 448 512"><!--! Font Awesome Pro 6.6.0 by @fontawesome - https://fontawesome.com License - https://fontawesome.com/license (Commercial License) Copyright 2024 Fonticons, Inc. --><path d="M72.8 0L66.3 13.7 34.8 80 24 80 0 80l0 48 24 0 26 0 350 0 24 0 24 0 0-48-24 0-9.2 0L381.5 13.3 374.8 0 360 0 88 0 72.8 0zM88 80l15.2-32 242 0 16 32L88 80zM47.4 160L80 512l288 0 32.6-352-48.2 0-5.9 64-244.9 0-5.9-64-48.2 0zm68.9 224l215.3 0-7.4 80-200.5 0-7.4-80z"/></svg>

<svg xmlns="http://www.w3.org/2000/svg" viewBox="0 0 448 512"><!--! Font Awesome Pro 6.4.0 by @fontawesome - https://fontawesome.com License - https://fontawesome.com/license (Commercial License) Copyright 2023 Fonticons, Inc. --><path d="M72.8 0L66.3 13.7 34.8 80H24 0v48H24 50 400h24 24V80H424h-9.2L381.5 13.3 374.8 0H360 88 72.8zM88 80l15.2-32h242l16 32H88zM47.4 160L80 512H368l32.6-352H352.4l-5.9 64H101.5l-5.9-64H47.4zm68.9 224H331.6l-7.4 80H123.8l-7.4-80z"/></svg>
